src/main/resources/icons/AllIcons/general/tbHidden_dark.svg

<svg xmlns="http://www.w3.org/2000/svg" width="16" height="16" viewBox="0 0 16 16"><rect id="frame" width="16" height="16" fill="none"/><g fill="#AFB1B3" fill-rule="evenodd"><path d="M4 2h10v10H4V2zm1 1v8h8V3H5z"/><path d="M3 4v9h9v1H2V4h1z"/></g></svg>

<!-- Copyright 2000-2021 JetBrains s.r.o. Use of this source code is governed by the Apache 2.0 license that can be found in the LICENSE file. -->
<svg xmlns="http://www.w3.org/2000/svg" width="16" height="16" viewBox="0 0 16 16">
  <g fill="none" fill-rule="evenodd">
    <path fill="#AFB1B3" d="M4,2 L14,2 L14,12 L4,12 L4,2 Z M5,3 L5,11 L13,11 L13,3 L5,3 Z"/>
    <path fill="#AFB1B3" d="M3,4 L3,13 L12,13 L12,14 L2,14 L2,4 L3,4 Z"/>
  </g>
</svg>
